src/lib/images/icons/facebook.svg

<svg viewBox="0 0 17 32" fill="none" xmlns="http://www.w3.org/2000/svg">
<path d="M0.516129 17.0432H4.02384V31.4839C4.02384 31.769 4.25486 32 4.53997 32H10.4874C10.7725 32 11.0036 31.769 11.0036 31.4839V17.1112H15.036C15.2982 17.1112 15.5188 16.9145 15.5487 16.654L16.1611 11.3377C16.178 11.1914 16.1316 11.045 16.0338 10.9352C15.9358 10.8254 15.7956 10.7625 15.6485 10.7625H11.0038V7.42999C11.0038 6.42539 11.5447 5.91597 12.6116 5.91597C12.7637 5.91597 15.6485 5.91597 15.6485 5.91597C15.9336 5.91597 16.1646 5.68485 16.1646 5.39985V0.519948C16.1646 0.234839 15.9336 0.00381935 15.6485 0.00381935H11.4632C11.4337 0.00237419 11.3682 0 11.2715 0C10.5453 0 8.02116 0.142555 6.02725 1.97688C3.81801 4.0096 4.12511 6.44346 4.1985 6.86545V10.7624H0.516129C0.231019 10.7624 0 10.9934 0 11.2786V16.527C0 16.8121 0.231019 17.0432 0.516129 17.0432Z" fill="#fff"/>
</svg>

<svg viewBox="0 0 17 32" fill="none" xmlns="http://www.w3.org/2000/svg"><path d="M.516 17.043h3.508v14.44c0 .286.23.517.516.517h5.947a.516.516 0 0 0 .517-.516V17.11h4.032a.516.516 0 0 0 .513-.457l.612-5.316a.516.516 0 0 0-.513-.575h-4.644V7.43c0-1.005.54-1.514 1.608-1.514h3.037a.516.516 0 0 0 .516-.516V.52a.516.516 0 0 0-.516-.516h-4.186A4.1 4.1 0 0 0 11.272 0c-.727 0-3.25.143-5.245 1.977C3.818 4.01 4.125 6.443 4.198 6.865v3.897H.517A.516.516 0 0 0 0 11.28v5.248c0 .285.231.516.516.516z" fill="#fff"/></svg>
